asciidoc/courses/llm-knowledge-graph-construction/modules/4-querying/lessons/1-query-knowledge-graph/images/structured-unstructured.svg

<svg xmlns="http://www.w3.org/2000/svg" width="506" height="480" viewBox="0 0 506 480">
  <defs>
    <style type="text/css" />
  </defs>
  <g transform="translate(-501.28547974644664 91.39595949289324) scale(1)">
    <g class="relationship">
      <g transform="translate(587.5198547464466 -13.397979746446595) rotate(0)" stroke-width="5"
        stroke="#0062b1">
        <path d="M 59 0 L 223.1378493822517 0" />
        <polygon
          points="-24.8621506177483,0 -27.62461179749811,9.20820393249937 0,0 -27.62461179749811,-9.20820393249937"
          fill="#0062b1" transform="translate(248 0) rotate(0)" stroke="none" />
      </g>
    </g>
    <g class="relationship">
      <g transform="translate(894.5198547464466 -13.397979746446595) rotate(90)" stroke-width="5"
        stroke="#0062b1">
        <path d="M 59 0 L 194.1378493822517 0" />
        <polygon
          points="-24.8621506177483,0 -27.62461179749811,9.20820393249937 0,0 -27.62461179749811,-9.20820393249937"
          fill="#0062b1" transform="translate(219 0) rotate(0)" stroke="none" />
      </g>
      <g transform="translate(894.5198547464466 113.17094494467925) rotate(270) translate(0 -13)">
        <g transform="translate(0 0)">
          <g transform="translate(-54.34375 0)" fill="#ffffff" stroke="#000000" stroke-width="0">
            <rect x="0" y="0" width="108.6875" height="26" rx="5" ry="5" stroke="none" />
            <text xml:space="preserve" x="5" y="17.5" stroke="none" text-anchor="left"
              font-family="sans-serif" font-size="16" font-weight="normal" fill="#000000">HAS_ENTITY</text>
          </g>
        </g>
      </g>
    </g>
    <g class="relationship">
      <g stroke-width="5" stroke="#68bc00" id="xxxx">
        <path
          d="M 953.5198547464466 264.6020202535534 L 953.5198547464466 264.6020202535534 A 40 40 0 0 1 993.5198547464466 304.6020202535534 L 993.5198547464466 326.53309556242755 L 993.5198547464466 348.4641708713017 A 40 40 0 0 1 953.5198547464466 388.4641708713017 L 944.0198547464466 388.4641708713017 L 934.5198547464466 388.4641708713017 A 40 40 0 0 0 894.5198547464466 348.4641708713017 L 894.5198547464466 348.4641708713017 L 894.5198547464466 348.4641708713017"
          fill="white" />
        <polygon
          points="-24.8621506177483,0 -27.62461179749811,9.20820393249937 0,0 -27.62461179749811,-9.20820393249937"
          fill="#68bc00"
          transform="translate(894.5198547464466 348.4641708713017) rotate(-90) translate(24.8621506177483 0)"
          stroke="none" />
      </g>
      <g transform="translate(944.0198547464466 388.4641708713017) rotate(0) translate(0 -31)">
        <g transform="translate(0 0)">
          <g transform="translate(-63.0859375 0)" fill="#ffffff" stroke="#000000" stroke-width="0">
            <rect x="0" y="0" width="126.171875" height="26" rx="5" ry="5" stroke="none" />
            <text xml:space="preserve" x="5" y="17.5" stroke="none" text-anchor="left"
              font-family="sans-serif" font-size="16" font-weight="normal" fill="#000000">RELATIONSHIP</text>
          </g>
        </g>
      </g>
    </g>
    <g class="node">
      <g fill="#ffffff" stroke="#0062b1" stroke-width="4">
        <circle cx="587.5198547464466" cy="-13.397979746446595" r="52" />
      </g>
      <g transform="translate(587.5198547464466 -13.397979746446595)">
        <g transform="scale(0.380859994140625) translate(0 0)">
          <g transform="translate(0 0)">
            <g font-family="sans-serif" font-size="50" font-weight="normal" fill="#000000"
              text-anchor="middle">
              <text xml:space="preserve" x="0" y="13" stroke="none">Document</text>
            </g>
          </g>
        </g>
        <g transform="translate(-56 -9.599999999999993)">
          <g transform="translate(0 0)">
            <g transform="translate(-30.234375 0)" fill="white">
              <rect x="0" y="0" width="30.234375" height="19.2" rx="0" ry="0" stroke="none" />
              <g font-family="sans-serif" font-size="16" font-weight="normal" fill="#000000"
                text-anchor="end">
                <text xml:space="preserve" x="21.34375" y="14.1" stroke="none">id:</text>
                <text xml:space="preserve" x="25.7890625" y="14.1" stroke="none" text-anchor="start"></text>
              </g>
            </g>
          </g>
        </g>
      </g>
    </g>
    <g class="node">
      <g fill="#ffffff" stroke="#0062b1" stroke-width="4">
        <circle cx="894.5198547464466" cy="-13.397979746446595" r="52" />
      </g>
      <g transform="translate(894.5198547464466 -13.397979746446595)">
        <g transform="scale(0.57421917578125) translate(0 0)">
          <g transform="translate(0 0)">
            <g font-family="sans-serif" font-size="50" font-weight="normal" fill="#000000"
              text-anchor="middle">
              <text xml:space="preserve" x="0" y="13" stroke="none">Chunk</text>
            </g>
          </g>
        </g>
        <g transform="translate(39.59797974644666 -77.99797974644665)">
          <g transform="translate(0 0)">
            <g transform="translate(0 0)" fill="white">
              <rect x="0" y="0" width="43.5703125" height="38.4" rx="0" ry="0" stroke="none" />
              <g font-family="sans-serif" font-size="16" font-weight="normal" fill="#000000"
                text-anchor="end">
                <text xml:space="preserve" x="34.6796875" y="14.1" stroke="none">id:</text>
                <text xml:space="preserve" x="39.125" y="14.1" stroke="none" text-anchor="start"></text>
                <text xml:space="preserve" x="34.6796875" y="33.3" stroke="none" text-anchor="end">text:</text>
                <text xml:space="preserve" x="39.125" y="33.3" stroke="none" text-anchor="start"></text>
              </g>
            </g>
          </g>
        </g>
      </g>
    </g>
    <g class="node">
      <g fill="#ffffff" stroke="#68bc00" stroke-width="4">
        <circle cx="894.5198547464466" cy="264.6020202535534" r="52" />
      </g>
      <g transform="translate(894.5198547464466 264.6020202535534)">
        <g transform="scale(0.6484378515625) translate(0 0)">
          <g transform="translate(0 0)">
            <g font-family="sans-serif" font-size="50" font-weight="normal" fill="#000000"
              text-anchor="middle">
              <text xml:space="preserve" x="0" y="13" stroke="none">Entity</text>
            </g>
          </g>
        </g>
        <g transform="translate(-56 -9.599999999999993)">
          <g transform="translate(0 0)">
            <g transform="translate(-30.234375 0)" fill="white">
              <rect x="0" y="0" width="30.234375" height="19.2" rx="0" ry="0" stroke="none" />
              <g font-family="sans-serif" font-size="16" font-weight="normal" fill="#000000"
                text-anchor="end">
                <text xml:space="preserve" x="21.34375" y="14.1" stroke="none">id:</text>
                <text xml:space="preserve" x="25.7890625" y="14.1" stroke="none" text-anchor="start"></text>
              </g>
            </g>
          </g>
        </g>
      </g>
    </g>
  </g>
</svg>

<?xml version="1.0" encoding="UTF-8" standalone="no"?>
<svg
   width="506"
   height="500"
   viewBox="0 0 506 500"
   version="1.1"
   id="svg145"
   sodipodi:docname="structured-unstructured.svg"
   inkscape:version="1.2.2 (732a01da63, 2022-12-09)"
   inkscape:export-filename="structured-unstructured.png"
   inkscape:export-xdpi="96"
   inkscape:export-ydpi="96"
   xmlns:inkscape="http://www.inkscape.org/namespaces/inkscape"
   xmlns:sodipodi="http://sodipodi.sourceforge.net/DTD/sodipodi-0.dtd"
   xmlns="http://www.w3.org/2000/svg"
   xmlns:svg="http://www.w3.org/2000/svg">
  <sodipodi:namedview
     id="namedview147"
     pagecolor="#ffffff"
     bordercolor="#000000"
     borderopacity="0.25"
     inkscape:showpageshadow="2"
     inkscape:pageopacity="0.0"
     inkscape:pagecheckerboard="0"
     inkscape:deskcolor="#d1d1d1"
     showgrid="false"
     inkscape:zoom="1.7270833"
     inkscape:cx="220.02413"
     inkscape:cy="240.28951"
     inkscape:window-width="1920"
     inkscape:window-height="1009"
     inkscape:window-x="1912"
     inkscape:window-y="-8"
     inkscape:window-maximized="1"
     inkscape:current-layer="svg145" />
  <defs
     id="defs4">
    <style
       type="text/css"
       id="style2" />
  </defs>
  <g
     class="relationship"
     id="g12"
     transform="translate(-501.28548,91.395959)">
    <g
       transform="translate(587.51985,-13.39798)"
       stroke-width="5"
       stroke="#0062b1"
       id="g10">
      <path
         d="M 59,0 H 223.13785"
         id="path6" />
      <polygon
         points="-27.624612,9.2082039 0,0 -27.624612,-9.2082039 -24.862151,0 "
         fill="#0062b1"
         transform="translate(248)"
         stroke="none"
         id="polygon8" />
    </g>
  </g>
  <g
     class="relationship"
     id="g30"
     transform="translate(-501.28548,91.395959)">
    <g
       transform="rotate(90,453.95892,440.56094)"
       stroke-width="5"
       stroke="#0062b1"
       id="g18">
      <path
         d="M 59,0 H 194.13785"
         id="path14" />
      <polygon
         points="-27.624612,9.2082039 0,0 -27.624612,-9.2082039 -24.862151,0 "
         fill="#0062b1"
         transform="translate(219)"
         stroke="none"
         id="polygon16" />
    </g>
    <g
       transform="rotate(-90,497.3454,-384.17445)"
       id="g28">
      <g
         id="g26">
        <g
           transform="translate(-54.34375)"
           fill="#ffffff"
           stroke="#000000"
           stroke-width="0"
           id="g24">
          <rect
             x="0"
             y="0"
             width="108.6875"
             height="26"
             rx="5"
             ry="5"
             stroke="none"
             id="rect20" />
          <text
             xml:space="preserve"
             x="5"
             y="17.5"
             stroke="none"
             text-anchor="left"
             font-family="sans-serif"
             font-size="16px"
             font-weight="normal"
             fill="#000000"
             id="text22">HAS_ENTITY</text>
        </g>
      </g>
    </g>
  </g>
  <g
     stroke-width="5"
     stroke="#68bc00"
     id="xxxx"
     transform="translate(-501.28548,91.395959)">
    <path
       d="m 953.51985,264.60202 v 0 c 22.09139,0 40,17.90861 40,40 v 21.93108 21.93107 c 0,22.09139 -17.90861,40 -40,40 h -9.5 -9.5 c -25.47648,-1.247 -39.91102,-14.52352 -40,-40 v 0 0"
       fill="#ffffff"
       id="path32"
       sodipodi:nodetypes="csscssccscc" />
    <polygon
       points="-27.624612,-9.2082039 -24.862151,0 -27.624612,9.2082039 0,0 "
       fill="#68bc00"
       transform="rotate(-90,609.06094,-285.45892)"
       stroke="none"
       id="polygon34" />
  </g>
  <g
     transform="translate(437.52327,447.1231)"
     id="g45">
    <g
       id="g43">
      <g
         transform="translate(-63.085937)"
         fill="#ffffff"
         stroke="#000000"
         stroke-width="0"
         id="g41">
        <rect
           x="0"
           y="0"
           width="126.17188"
           height="26"
           rx="5"
           ry="5"
           stroke="none"
           id="rect37" />
        <text
           xml:space="preserve"
           x="5"
           y="17.5"
           stroke="none"
           text-anchor="left"
           font-family="sans-serif"
           font-size="16px"
           font-weight="normal"
           fill="#000000"
           id="text39">RELATIONSHIP</text>
      </g>
    </g>
  </g>
  <g
     class="node"
     id="g77"
     transform="translate(-501.28548,91.395959)">
    <g
       fill="#ffffff"
       stroke="#0062b1"
       stroke-width="4"
       id="g51">
      <circle
         cx="587.51984"
         cy="-13.39798"
         r="52"
         id="circle49" />
    </g>
    <g
       transform="translate(587.51985,-13.39798)"
       id="g75">
      <g
         transform="scale(0.38085999)"
         id="g59">
        <g
           id="g57">
          <g
             font-family="sans-serif"
             font-size="50px"
             font-weight="normal"
             fill="#000000"
             text-anchor="middle"
             id="g55">
            <text
               xml:space="preserve"
               x="0"
               y="13"
               stroke="none"
               id="text53">Document</text>
          </g>
        </g>
      </g>
      <g
         transform="translate(-56,-9.6)"
         id="g73">
        <g
           id="g71">
          <g
             transform="translate(-30.234375)"
             fill="#ffffff"
             id="g69">
            <rect
               x="0"
               y="0"
               width="30.234375"
               height="19.200001"
               rx="0"
               ry="0"
               stroke="none"
               id="rect61" />
            <g
               font-family="sans-serif"
               font-size="16px"
               font-weight="normal"
               fill="#000000"
               text-anchor="end"
               id="g67">
              <text
                 xml:space="preserve"
                 x="21.34375"
                 y="14.1"
                 stroke="none"
                 id="text63">id:</text>
              <text
                 xml:space="preserve"
                 x="25.789062"
                 y="14.1"
                 stroke="none"
                 text-anchor="start"
                 id="text65" />
            </g>
          </g>
        </g>
      </g>
    </g>
  </g>
  <g
     class="node"
     id="g111"
     transform="translate(-501.28548,91.395959)">
    <g
       fill="#ffffff"
       stroke="#0062b1"
       stroke-width="4"
       id="g81">
      <circle
         cx="894.51984"
         cy="-13.39798"
         r="52"
         id="circle79" />
    </g>
    <g
       transform="translate(894.51985,-13.39798)"
       id="g109">
      <g
         transform="scale(0.57421918)"
         id="g89">
        <g
           id="g87">
          <g
             font-family="sans-serif"
             font-size="50px"
             font-weight="normal"
             fill="#000000"
             text-anchor="middle"
             id="g85">
            <text
               xml:space="preserve"
               x="0"
               y="13"
               stroke="none"
               id="text83">Chunk</text>
          </g>
        </g>
      </g>
      <g
         transform="translate(39.59798,-77.99798)"
         id="g107">
        <g
           id="g105">
          <g
             fill="#ffffff"
             id="g103">
            <rect
               x="0"
               y="0"
               width="43.570312"
               height="38.400002"
               rx="0"
               ry="0"
               stroke="none"
               id="rect91" />
            <g
               font-family="sans-serif"
               font-size="16px"
               font-weight="normal"
               fill="#000000"
               text-anchor="end"
               id="g101">
              <text
                 xml:space="preserve"
                 x="34.679688"
                 y="14.1"
                 stroke="none"
                 id="text93">id:</text>
              <text
                 xml:space="preserve"
                 x="39.125"
                 y="14.1"
                 stroke="none"
                 text-anchor="start"
                 id="text95" />
              <text
                 xml:space="preserve"
                 x="34.679688"
                 y="33.299999"
                 stroke="none"
                 text-anchor="end"
                 id="text97">text:</text>
              <text
                 xml:space="preserve"
                 x="39.125"
                 y="33.299999"
                 stroke="none"
                 text-anchor="start"
                 id="text99" />
            </g>
          </g>
        </g>
      </g>
    </g>
  </g>
  <g
     class="node"
     id="g141"
     transform="translate(-501.28548,91.395959)">
    <g
       fill="#ffffff"
       stroke="#68bc00"
       stroke-width="4"
       id="g115">
      <circle
         cx="894.51984"
         cy="264.60202"
         r="52"
         id="circle113" />
    </g>
    <g
       transform="translate(894.51985,264.60202)"
       id="g139">
      <g
         transform="scale(0.64843785)"
         id="g123">
        <g
           id="g121">
          <g
             font-family="sans-serif"
             font-size="50px"
             font-weight="normal"
             fill="#000000"
             text-anchor="middle"
             id="g119">
            <text
               xml:space="preserve"
               x="0"
               y="13"
               stroke="none"
               id="text117">Entity</text>
          </g>
        </g>
      </g>
      <g
         transform="translate(-56,-9.6)"
         id="g137">
        <g
           id="g135">
          <g
             transform="translate(-30.234375)"
             fill="#ffffff"
             id="g133">
            <rect
               x="0"
               y="0"
               width="30.234375"
               height="19.200001"
               rx="0"
               ry="0"
               stroke="none"
               id="rect125" />
            <g
               font-family="sans-serif"
               font-size="16px"
               font-weight="normal"
               fill="#000000"
               text-anchor="end"
               id="g131">
              <text
                 xml:space="preserve"
                 x="21.34375"
                 y="14.1"
                 stroke="none"
                 id="text127">id:</text>
              <text
                 xml:space="preserve"
                 x="25.789062"
                 y="14.1"
                 stroke="none"
                 text-anchor="start"
                 id="text129" />
            </g>
          </g>
        </g>
      </g>
    </g>
  </g>
</svg>
